X:18
T:468. Boolavogue
T:Eochaill
R:waltz, song air
C:P.J. McCall, 1861-1919
S:Mike Rafferty
H:Father John Murphy of Boolavogue (in Wexford) led his parishioners during the
H:Rebellion of 1798. The Wexford insurgents were eventually defeated, and Father
H:Murphy and the other rebel leaders were hanged by the British.
N:related to the air "Eochaill",  Irish, Slow Air (4/4 time). G Major. [FC]
D:Leo Rowsome
Z:Lesl
M:3/4
L:1/8
K:G
(3DEF|G2 G2 D2|G2 B2 d2|g4 {ga}gf|e2g2 {a}ge|d3z {f}ed|B2 BAGB|A3 B AG|E4 F2|
G3G D2|G2 B2 d2|g3 a{ga}gf|e2g2 {a}ge|d4 {f}ed|B2 BAGB|A4 G2|G4:|
B2|d4 B2|d2 e2 f2|g4 gf|e2g2 ge|d4 ed|B2 BAGB|A3 B AG|E4 F2|
G2 G2 D2|G2 B2 d2|g3 a{ga}gf|e2 g2 {a}ge|d4 {f}ed|B2 BAGB|A4 G2|G4:|

